X:1
T:Title
%%score 1 2
L:1/8
Q:1/4=112
M:4/4
K:C
V:1 treble nm="Grand Piano, Soprano"
V:2 bass nm="Choir Pad, Caballero, William F Sherwin"
V:1
 [EG]2 [CE]2 [EG]3 [EG] | [FA]2 [FA]2 [FA]4 | G2 [Gc]2 [FB]2 [Ec]2 | [Fd]2 [DB]2 [Ec]4 | %4
w: By~William~Fiske~Sherwin * * *||||
 [EG]2 [CE]2 [EG]3 [EG] | [FA]2 [FA]2 [FA]4 | G2 [Gc]2 [FB]2 [Ec]2 | [Fd]2 [DB]2 [Ec]4 | %8
w: ||||
 [Ge]2 [Ge]2 [Ge]3 [Fd] | [Ec]2 [FA]2 [EG]4 | [CE]2 [B,F]2 [CG]2 [Ec]2 | [FB]2 [Ec]2 [Gd]4 | %12
w: ||||
 [Ge]2 [Ge]2 [Ge]3 [Gd] | [Gc]2 [FA]2 [EG]4 | [CE]2 [EG]2 [FA]2 [EG]2 | [CE]2 [B,D]2 C4- | C4 z4 |] %17
w: |||||
V:2
 [C,C]2 [C,G,]2 [C,C]3 [C,C] | [F,C]2 [F,C]2 [F,C]4 | [E,C]2 [E,C]2 [D,G,]2 [C,G,]2 | %3
 [F,A,]2 G,2 [C,G,]4 | [C,C]2 [C,G,]2 [C,C]3 [C,C] | [F,C]2 [F,C]2 [F,C]4 | %6
 [E,C]2 [E,C]2 [D,G,]2 [C,G,]2 | [F,A,]2 G,2 [C,G,]4 | C2 C2 C3 [G,B,] | %9
 [A,C]2[K:bass] [F,C]2 [C,C]4 | [C,G,]2 [D,G,]2 [E,C]2 [C,C]2 | [G,D]2 [G,C]2 [G,B,]4 | %12
 [C,C]2 [C,C]2 [C,C]3 [D,B,] | [E,C]2 [F,C]2 [C,C]4 | [C,G,]2 [C,C]2 [F,C]2 [C,C]2 | %15
 G,2 [G,,F,]2 [C,E,]4- | [C,E,]4 z4 |] %17

